X: 465
%
U:~=!turn!
T: Mrs. Douglas Moncrieff
C:Robt. Macintosh
O:Scotland
B:Keith Norman MacDonald : "The Skye collection of the best reels & strathspeys extant" : 1887
Z:Ralph Palmer
R:Reel
M:C|
L:1/8
K:G
c | BGdG BGGB | cEAG FDDc | [1 BGdG BGGB | EcAF {/F}G2 G:|
[2 BGdB gdec | (BG)AF {/F}G3 || c | (Bcd).g ecgc | BGdG FDDc | (Bcd).g efge |
dBcA G/G/G (Gc) | (Bcd).g ecgc | BGAG FDDc | (Bd)gb ceag | fdef g/g/g ~g |]


